X:1
T:Title
T:Title
T:Composer
C:Composer
L:1/8
M:2/4
K:Eb
V:1 bass nm="Bassoon" snm="Bsn."
V:1
 z4 | z4 | z4 | z4 | z4 | z4 | z4 | z4 | z4 | z4 | z4 | z4 | z4 | z4 | z4 | z4 | z4 | z4 | %18
[K:bass]"^Perky and light, in four"!mp! .E.B .B,.B | .E.B .B,.B | .C.G .G,.G | .C(=A, .B,) z | %22
 .E.B .B,.B | .D.G, .C z | F/F/F/F/ F/F/F/F/ | .B.F .D.B, | B,3 B, | B,3 B, | C z F, z | B, z z2 | %30
 .E.B .B,.B | .E.B .B,.B | .C.G .G,.G | .C(=A, .B,) z | .E.B .B,.B | .D.G, .C z | %36
 F/F/F/F/ F/F/F/F/ | .B.F .D.B, |[K:E] .E.B .B,.B | .E.B .B,.B | .E.B .B,.B | %41
{/F} (E/=D/).B,/.G,/ .E, z | z4 | z4 | z4 | z4 |!pp!"^Slowly, in two" (E4 | D4 | D4 | =D4) | z4 | %51
 z4 | z4 | !fermata!z4 | z4 | z4 | z4 | z4 | z4 | z4 | z4 | z4 | z4 | z4 | z4 | z4 | z4 | z4 | z4 | %69
 z4 | z4 | z4 | z4 | z4 | z4 |] %75

